X:18
T:All of Me
C:with scales studies
N:TablEdited by Terry G Martin
L:1/8
Q:1/4=120
M:4/4
K:C
z8 | "CM7"CD EF GA Bc | AB cd ef ga | "E7"EF ^GA Bc de | ed cB A^G FE | "A7"A_B ^cd ef ga | 
ag fe d^c _BA | "Dm"DE FG AB ^cd | d^c BA GF ED | "E7"EF ^GA Bc de | ed cB A^G FE | 
"Am"AB cd e^f ^ga | gf ed cB AA | "D7"DE ^FG AB cd | dc BA G^F ED | GA Bc de fg | 
"G7"gf ed cB AG | "CM7"CD EF GA Bc | ag fd cB AG | "E7"EF ^GA Bc de | ed cB A^G FE | 
"A7"A_B ^cd ef ga | ag fe d^c _BA | "Dm"DE FG AB ^cd | d^c BA GF ED | "F"FG AB cd ef | 
"Fm"FG ^G_B cd ^de | "CM7"CD EF GA Bc | "A7"AB ^cd ef ga | "Dm"DE FG AB cd | "G7"GA Bc de fg | 
"CM7"CD Gc "Cdim"A^F ^DC | "Dm7"DE GA "G7"GF EC | C8 | 


